X:1
T:Musical Priest
R:reel
C:Traditional
M:4/4
K:Bm
FBBA (3BBB Bd | cBAf edBA | FBBA (3BBB Bd |[1 cBAc (3BBB BA :|[2 cBAc (3BBB Bc ||
|: (3ddd dc dfed | (3(cBA) eA fAeA | dcBc defb | afed (3BBB Bc :|
|: dB (3BBB bafb | afed Bcde | dB (3BBB bafb |[1 afed (3BBB Bc :|[2 afed (3BBB BA ||

